src/assets/grow.svg

<svg width="40" height="40" viewBox="0 0 40 40" fill="none" xmlns="http://www.w3.org/2000/svg">
<mask id="mask0_1744_191" style="mask-type:alpha" maskUnits="userSpaceOnUse" x="0" y="0" width="40" height="40">
<rect width="40" height="40" fill="#D9D9D9"/>
</mask>
<g mask="url(#mask0_1744_191)">
<path d="M18.9528 34.1667V21.0471H5.83325V18.953H18.9528V5.83337H21.047V18.953H34.1666V21.0471H21.047V34.1667H18.9528Z" fill="white"/>
</g>
</svg>

<svg width="40" height="40" viewBox="0 0 40 40" fill="none" xmlns="http://www.w3.org/2000/svg"><mask id="mask0_1744_191" style="mask-type:alpha" maskUnits="userSpaceOnUse" x="0" y="0" width="40" height="40"><path fill="#d9d9d9" d="M0 0h40v40H0z"/></mask><g mask="url(#mask0_1744_191)"><path d="M18.953 34.167v-13.12H5.833v-2.094h13.12V5.833h2.094v13.12h13.12v2.094h-13.12v13.12z" fill="#fff"/></g></svg>
